tools/download-figma-icons/icons/outlined-large/industry.svg

<svg width="65" height="64" viewBox="0 0 65 64" fill="none" xmlns="http://www.w3.org/2000/svg">
<path d="M63.3565 30.2302C63.1537 30.0917 62.9202 30.0048 62.6763 29.9769C62.4323 29.949 62.1853 29.9811 61.9565 30.0702L40.9565 38.2702V31.4802C40.9542 31.2415 40.895 31.0067 40.7837 30.7954C40.6725 30.5841 40.5124 30.4025 40.3167 30.2656C40.1211 30.1286 39.8956 30.0404 39.6591 30.0081C39.4225 29.9759 39.1816 30.0006 38.9565 30.0802L15.9565 39.0802L14.0065 17.3502C13.9714 16.9781 13.7977 16.6327 13.5198 16.3826C13.242 16.1326 12.8803 15.9961 12.5065 16.0002H5.50648C5.13205 15.9937 4.76907 16.1294 4.49071 16.3799C4.21236 16.6304 4.03932 16.9772 4.00648 17.3502L0.00648168 62.3502C-0.0127947 62.5562 0.011038 62.764 0.076462 62.9602C0.141886 63.1565 0.247467 63.337 0.386482 63.4902C0.527296 63.6486 0.699678 63.7758 0.892559 63.8636C1.08544 63.9515 1.29456 63.998 1.50648 64.0002H62.5065C62.9043 64.0002 63.2858 63.8422 63.5671 63.5609C63.8484 63.2796 64.0065 62.898 64.0065 62.5002V31.5002C64.0121 31.2512 63.9556 31.0047 63.8421 30.783C63.7287 30.5613 63.5617 30.3713 63.3565 30.2302ZM6.07648 28.0002H12.0065L12.1865 30.0002H5.90648L6.07648 28.0002ZM11.1365 19.0002L11.6865 25.0002H6.34648L6.87648 19.0002H11.1365ZM3.13648 61.0002L5.63648 33.0002H12.4265L15.0065 61.0002H3.13648ZM16.2565 41.9402C16.5254 41.9879 16.8023 41.9602 17.0565 41.8602L38.0565 33.6702V61.0002H18.0065L16.2565 41.9402ZM61.0065 61.0002H41.0065V41.4902L61.0065 33.6602V61.0002Z" fill="black"/>
<path d="M6.5065 12C6.70433 12 6.9002 11.9609 7.08285 11.8849C7.26549 11.8089 7.4313 11.6975 7.57071 11.5571C7.71013 11.4168 7.82041 11.2502 7.89521 11.0671C7.97 10.884 8.00782 10.6878 8.0065 10.49V9.49C8.00915 7.76783 8.69514 6.11709 9.91384 4.90027C11.1325 3.68344 12.7843 3 14.5065 3H39.5065C39.9043 3 40.2859 2.84196 40.5672 2.56066C40.8485 2.27936 41.0065 1.89782 41.0065 1.5C41.0065 1.10218 40.8485 0.720644 40.5672 0.43934C40.2859 0.158035 39.9043 0 39.5065 0L14.5065 0C11.9895 0.00264114 9.57617 1.00301 7.79544 2.78187C6.0147 4.56073 5.0118 6.97299 5.0065 9.49V10.49C5.00518 10.6878 5.04301 10.884 5.1178 11.0671C5.19259 11.2502 5.30287 11.4168 5.44229 11.5571C5.58171 11.6975 5.74752 11.8089 5.93016 11.8849C6.1128 11.9609 6.30868 12 6.5065 12Z" fill="black"/>
<path d="M15.5065 5C14.0495 5 12.6521 5.57809 11.6209 6.60738C10.5898 7.63666 10.0091 9.03304 10.0065 10.49V12.49C10.0065 12.8878 10.1645 13.2694 10.4458 13.5507C10.7271 13.832 11.1086 13.99 11.5065 13.99C11.9043 13.99 12.2858 13.832 12.5671 13.5507C12.8484 13.2694 13.0065 12.8878 13.0065 12.49V10.49C13.0091 9.82869 13.2737 9.19537 13.7422 8.72869C14.2108 8.26201 14.8452 7.99999 15.5065 8H24.5065C24.9043 8 25.2858 7.84196 25.5671 7.56066C25.8484 7.27936 26.0065 6.89782 26.0065 6.5C26.0065 6.10218 25.8484 5.72064 25.5671 5.43934C25.2858 5.15804 24.9043 5 24.5065 5H15.5065Z" fill="black"/>
<path d="M53.5065 49H56.5065C56.9043 49 57.2858 48.842 57.5671 48.5607C57.8484 48.2794 58.0065 47.8978 58.0065 47.5C58.0065 47.1022 57.8484 46.7206 57.5671 46.4393C57.2858 46.158 56.9043 46 56.5065 46H53.5065C53.1086 46 52.7271 46.158 52.4458 46.4393C52.1645 46.7206 52.0065 47.1022 52.0065 47.5C52.0065 47.8978 52.1645 48.2794 52.4458 48.5607C52.7271 48.842 53.1086 49 53.5065 49Z" fill="black"/>
<path d="M53.5065 55H56.5065C56.9043 55 57.2858 54.842 57.5671 54.5607C57.8484 54.2794 58.0065 53.8978 58.0065 53.5C58.0065 53.1022 57.8484 52.7206 57.5671 52.4393C57.2858 52.158 56.9043 52 56.5065 52H53.5065C53.1086 52 52.7271 52.158 52.4458 52.4393C52.1645 52.7206 52.0065 53.1022 52.0065 53.5C52.0065 53.8978 52.1645 54.2794 52.4458 54.5607C52.7271 54.842 53.1086 55 53.5065 55Z" fill="black"/>
<path d="M45.5065 49H48.5065C48.9043 49 49.2858 48.842 49.5671 48.5607C49.8484 48.2794 50.0065 47.8978 50.0065 47.5C50.0065 47.1022 49.8484 46.7206 49.5671 46.4393C49.2858 46.158 48.9043 46 48.5065 46H45.5065C45.1086 46 44.7271 46.158 44.4458 46.4393C44.1645 46.7206 44.0065 47.1022 44.0065 47.5C44.0065 47.8978 44.1645 48.2794 44.4458 48.5607C44.7271 48.842 45.1086 49 45.5065 49Z" fill="black"/>
<path d="M48.5065 52H45.5065C45.1086 52 44.7271 52.158 44.4458 52.4393C44.1645 52.7206 44.0065 53.1022 44.0065 53.5C44.0065 53.8978 44.1645 54.2794 44.4458 54.5607C44.7271 54.842 45.1086 55 45.5065 55H48.5065C48.9043 55 49.2858 54.842 49.5671 54.5607C49.8484 54.2794 50.0065 53.8978 50.0065 53.5C50.0065 53.1022 49.8484 52.7206 49.5671 52.4393C49.2858 52.158 48.9043 52 48.5065 52Z" fill="black"/>
<path d="M30.5065 49H33.5065C33.9043 49 34.2858 48.842 34.5671 48.5607C34.8484 48.2794 35.0065 47.8978 35.0065 47.5C35.0065 47.1022 34.8484 46.7206 34.5671 46.4393C34.2858 46.158 33.9043 46 33.5065 46H30.5065C30.1086 46 29.7271 46.158 29.4458 46.4393C29.1645 46.7206 29.0065 47.1022 29.0065 47.5C29.0065 47.8978 29.1645 48.2794 29.4458 48.5607C29.7271 48.842 30.1086 49 30.5065 49Z" fill="black"/>
<path d="M33.5065 52H30.5065C30.1086 52 29.7271 52.158 29.4458 52.4393C29.1645 52.7206 29.0065 53.1022 29.0065 53.5C29.0065 53.8978 29.1645 54.2794 29.4458 54.5607C29.7271 54.842 30.1086 55 30.5065 55H33.5065C33.9043 55 34.2858 54.842 34.5671 54.5607C34.8484 54.2794 35.0065 53.8978 35.0065 53.5C35.0065 53.1022 34.8484 52.7206 34.5671 52.4393C34.2858 52.158 33.9043 52 33.5065 52Z" fill="black"/>
<path d="M25.5065 46H22.5065C22.1086 46 21.7271 46.158 21.4458 46.4393C21.1645 46.7206 21.0065 47.1022 21.0065 47.5C21.0065 47.8978 21.1645 48.2794 21.4458 48.5607C21.7271 48.842 22.1086 49 22.5065 49H25.5065C25.9043 49 26.2858 48.842 26.5671 48.5607C26.8484 48.2794 27.0065 47.8978 27.0065 47.5C27.0065 47.1022 26.8484 46.7206 26.5671 46.4393C26.2858 46.158 25.9043 46 25.5065 46Z" fill="black"/>
<path d="M25.5065 52H22.5065C22.1086 52 21.7271 52.158 21.4458 52.4393C21.1645 52.7206 21.0065 53.1022 21.0065 53.5C21.0065 53.8978 21.1645 54.2794 21.4458 54.5607C21.7271 54.842 22.1086 55 22.5065 55H25.5065C25.9043 55 26.2858 54.842 26.5671 54.5607C26.8484 54.2794 27.0065 53.8978 27.0065 53.5C27.0065 53.1022 26.8484 52.7206 26.5671 52.4393C26.2858 52.158 25.9043 52 25.5065 52Z" fill="black"/>
<path d="M29.5065 5C29.1086 5 28.7271 5.15804 28.4458 5.43934C28.1645 5.72064 28.0065 6.10218 28.0065 6.5C28.0065 6.89782 28.1645 7.27936 28.4458 7.56066C28.7271 7.84196 29.1086 8 29.5065 8H36.5065C36.9043 8 37.2858 7.84196 37.5671 7.56066C37.8484 7.27936 38.0065 6.89782 38.0065 6.5C38.0065 6.10218 37.8484 5.72064 37.5671 5.43934C37.2858 5.15804 36.9043 5 36.5065 5H29.5065Z" fill="black"/>
</svg>

<svg width="65" height="64" viewBox="0 0 65 64" fill="none" xmlns="http://www.w3.org/2000/svg"><path d="M63.356 30.23a1.51 1.51 0 0 0-1.4-.16l-21 8.2v-6.79a1.5 1.5 0 0 0-2-1.4l-23 9-1.95-21.73a1.49 1.49 0 0 0-1.5-1.35h-7a1.48 1.48 0 0 0-1.5 1.35l-4 45a1.49 1.49 0 0 0 .38 1.14 1.52 1.52 0 0 0 1.12.51h61a1.5 1.5 0 0 0 1.5-1.5v-31a1.5 1.5 0 0 0-.65-1.27ZM6.076 28h5.93l.18 2h-6.28l.17-2Zm5.06-9 .55 6h-5.34l.53-6h4.26Zm-8 42 2.5-28h6.79l2.58 28H3.137Zm13.12-19.06c.27.048.546.02.8-.08l21-8.19V61h-20.05l-1.75-19.06ZM61.007 61h-20V41.49l20-7.83V61ZM6.506 12a1.5 1.5 0 0 0 1.5-1.51v-1a6.5 6.5 0 0 1 6.5-6.49h25a1.5 1.5 0 0 0 0-3h-25a9.51 9.51 0 0 0-9.5 9.49v1a1.5 1.5 0 0 0 1.5 1.51Z" fill="currentColor"/><path d="M15.507 5a5.5 5.5 0 0 0-5.5 5.49v2a1.5 1.5 0 1 0 3 0v-2a2.5 2.5 0 0 1 2.5-2.49h9a1.5 1.5 0 0 0 0-3h-9Zm38 44h3a1.5 1.5 0 1 0 0-3h-3a1.5 1.5 0 1 0 0 3Zm0 6h3a1.5 1.5 0 1 0 0-3h-3a1.5 1.5 0 1 0 0 3Zm-8-6h3a1.5 1.5 0 1 0 0-3h-3a1.5 1.5 0 1 0 0 3Zm3 3h-3a1.5 1.5 0 1 0 0 3h3a1.5 1.5 0 1 0 0-3Zm-18.001-3h3a1.5 1.5 0 1 0 0-3h-3a1.5 1.5 0 1 0 0 3Zm3.001 3h-3a1.5 1.5 0 1 0 0 3h3a1.5 1.5 0 1 0 0-3Zm-8.001-6h-3a1.5 1.5 0 1 0 0 3h3a1.5 1.5 0 1 0 0-3Zm0 6h-3a1.5 1.5 0 1 0 0 3h3a1.5 1.5 0 1 0 0-3Zm4-47a1.5 1.5 0 1 0 0 3h7a1.5 1.5 0 0 0 0-3h-7Z" fill="currentColor"/></svg>
